X: 10709
T: Downton Bridge
R: jig
M: 6/8
K: Gmajor
|:Ddd Dcc|BGE D3|DFA cBA|GBe d3|
Ddd Dcc|BGE D3|DFA cBA|GBA G3:|
|:ceg gfe|dBG D3|DFA cBA|GBe d3|
ceg gfe|dBG D3|DFA cBA|GBA G3:|

